img/svg/16/net/ramblerbrowser.svg

<svg xmlns="http://www.w3.org/2000/svg" viewBox="0 0 16 16" enable-background="new 0 0 16 16"><path d="M8 1c-3.866 0-7 3.134-7 7s3.134 7 7 7 7-3.134 7-7-3.134-7-7-7zm5.5 7c0 .645-.117 1.261-.32 1.836l-1.34-.774c.093-.34.16-.692.16-1.062 0-1.862-1.278-3.413-3-3.859v-1.546c2.559.471 4.5 2.709 4.5 5.405zm-6.5-5.405v1.546c-1.722.446-3 1.997-3 3.859 0 .37.067.722.161 1.062l-1.34.774c-.204-.575-.321-1.191-.321-1.836 0-2.696 1.941-4.934 4.5-5.405zm1 10.905c-1.675 0-3.172-.751-4.181-1.932l1.329-.768c.727.74 1.735 1.2 2.852 1.2 1.117 0 2.125-.46 2.851-1.199l1.329.768c-1.008 1.18-2.505 1.931-4.18 1.931z" fill="#ccc"/></svg>

<svg xmlns="http://www.w3.org/2000/svg" viewBox="0 0 16 16"><path fill="#ccc" d="M8 1a7 7 0 1 0 0 14A7 7 0 0 0 8 1zm5.5 7a5.5 5.5 0 0 1-.32 1.836l-1.34-.774c.093-.34.16-.692.16-1.062a3.991 3.991 0 0 0-3-3.859V2.595A5.499 5.499 0 0 1 13.5 8zM7 2.595v1.546A3.991 3.991 0 0 0 4 8c0 .37.067.722.161 1.062l-1.34.774A5.475 5.475 0 0 1 2.5 8 5.499 5.499 0 0 1 7 2.595zM8 13.5a5.484 5.484 0 0 1-4.181-1.932l1.329-.768C5.875 11.54 6.883 12 8 12c1.117 0 2.125-.46 2.851-1.199l1.329.768A5.483 5.483 0 0 1 8 13.5z"/></svg>
